dist/svg/static/business-address-large.svg

<svg xmlns="http://www.w3.org/2000/svg" width="48" height="48" viewBox="0 0 48 48"><g fill="none" stroke="currentColor" stroke-miterlimit="10"><path d="M8 37.5h20m-20-5h28m-28.5-20V6.652A4.234 4.234 0 0 1 11.69 2.5h3.792A4.088 4.088 0 0 1 19.5 6.652l.035 14.886a3.978 3.978 0 0 1-3.971 4.013 4.056 4.056 0 0 1-4.064-4.013V7"/><path d="M46.5 14.5a2 2 0 0 0-2-2h-43v31a2 2 0 0 0 2 2h43v-31z"/></g></svg>

<?xml version="1.0" encoding="UTF-8" standalone="no"?>
<svg width="48px" height="48px" viewBox="0 0 48 48" version="1.1" xmlns="http://www.w3.org/2000/svg" xmlns:xlink="http://www.w3.org/1999/xlink">
    <!-- Generator: sketchtool 46.2 (44496) - http://www.bohemiancoding.com/sketch -->
    <title>business-address-large</title>
    <desc>Created with sketchtool.</desc>
    <defs></defs>
    <g id="icons-published" stroke="none" stroke-width="1" fill="none" fill-rule="evenodd">
        <g id="briefing" transform="translate(-288.000000, -282.000000)"></g>
        <g id="business-address-large" stroke="#000000">
            <path d="M8,37.5 L28,37.5 M8,32.5 L36,32.5 M7.5,12.5 L7.5,6.7 C7.5,4.4 9.4,2.6 11.7,2.5 L15.5,2.5 C17.8,2.5 19.6,4.4 19.5,6.7 L19.5,21.6 C19.5,23.8 17.8,25.6 15.6,25.6 C15.6,25.6 15.6,25.6 15.6,25.6 C13.4,25.6 11.6,23.8 11.5,21.6 L11.5,7" id="Shape"></path>
            <path d="M46.5,14.5 C46.5,13.4 45.6,12.5 44.5,12.5 L1.5,12.5 L1.5,43.5 C1.5,44.6 2.4,45.5 3.5,45.5 L46.5,45.5 L46.5,14.5 Z" id="Shape"></path>
        </g>
    </g>
</svg>
